X:1
T:Tordiveln og Flugua
T:Tordiveln og Flugua
T:Halvdan Kjerulf
T:Norsk folkevise
C:Halvdan Kjerulf
Z:Norsk folkevise
%%score [ 1 2 3 4 ]
L:1/8
Q:3/8=80
M:6/8
K:D
V:1 treble-8 nm="Tenor 1"
V:2 treble-8 nm="Tenor 2"
V:3 bass nm="Baryton"
V:4 bass nm="Bass"
V:1
!p!"_dol.""^Con moto." d d d d2 f | B3/2 c/ d e2 c | A2 A A2 z | z2 z z2!p! A | %4
w: Tor- vi- veln kom te|Flu- gu- a in, kom|pi- ri- um,|Aa|
!<(! A f!<)! f f3/2 e/ d/ c/ | B c!>(! d e3!>)! |!<(! f2 e!<)! d2 c |!p!!>(! B2 B!>)! B3 | %8
w: vil du no ve- ra Al- ler-|kjæ- re- sten min?|Pi- ri- a- tre|pa- ri- um|
!<(! f2 e!<)!!>(! c2 B!>)! | A2 A!<(! (AB)!<)! c |!>(! d2 d!>)! d2 z | z6 |] %12
w: dy- ri dy- ri|da- ri- um, _ kom|pi- ri- um.||
V:2
!p! A A A A2 d | B3/2 c/ d B2 c | A2 A (cd)!pp! ^d | e2 c B2!p! c |!<(! A A!<)! ^A B/ B/ B B | %5
w: Tor- di- veln kom te|Flu- gu- a in, kom|pi- ri- um, _ kom|pi- ri- um; Aa|vil du no ve- ra Al- ler-|
 B B!>(! _B A3!>)! |!<(! A2 c!<)! B2 A |!p!!>(! A A A!>)!!pp! A A A |!<(! ^G2 A!<)!!>(! c2 G!>)! | %9
w: kjæ- re- sten min?|Pi- ri- a- tre|pa- ri- um pi- ri- um|dy- ri dy- ri|
 F F F!<(! G G!<)! G |!p!!>(! F G A!>)! G B!>(! _B | A2 d!>)! d2 z |] %12
w: da- ri- um, pa- ri- um|dy- ri aa da- ri, kom|pi- ri- um.|
V:3
!p! F, F, F, F,2 A, | G,3/2 E,/ F, G,2 G, | G,2 G, G,2!pp! G, | G,2 G, D,2!p! E, | %4
w: Tor- di- veln kom te|Flu- gu- a in, kom|pi- ri- um, kom|pi- ri- um; Aa|
!<(! F, F,!<)! F, G,/ G,/ G, G, | G, G,!>(! G, G,3!>)! |!<(! F,2 G,!<)! F,2 F, | %7
w: vil du no ve- ra Al- ler-|kjæ- re- sten min?|Pi- ri- a- tre|
!p!!>(! F, F, F,!>)!!pp! =F, F, F, |!<(! E,2 E,!<)!!>(! A,2 ^G,!>)! | A, A, A,!<(! A, A,!<)! A, | %10
w: pa- ri- um pi- ri- um|dy- ri dy- ri|da- ri- um, pa- ri- um|
!p!!>(! A, B, =C!>)! B, G,!>(! E, | F,2 A,!>)! A,2 z |] %12
w: dy- ri aa da- ri, kom|pi- ri- um.|
V:4
!p! D, D, D, D,2 D, | D,3/2 D,/ D, D,2 E, | (C,D,) ^D, E,2!pp! C, | A,,2 A,, A,,2!p! A,, | %4
w: Tor- di- veln kom te|Flu- gu- a in, kom|pi- * ri- um, kom|pi- ri- um; Aa|
!<(! D, D,!<)! D, D,/ D,/ D, D, | D, D,!>(! D, C,3!>)! |!<(! D,2 A,,!<)! B,,2 C, | %7
w: vil du no ve- ra Al- ler-|kjæ- re- sten min?|Pi- ri- a- tre|
!p!!>(! D, D, D,!>)!!pp! D, D, D, |!<(! D,2 C,!<)!!>(! E,2 ^E,!>)! | F, A, F,!<(! E, A,!<)! E, | %10
w: pa- ri- um pi- ri- um|dy- ri dy- ri|da- ri- um, pa- ri- um|
!p!!>(! D, D, D,!>)! D, D,!>(! D, | D,2 F,!>)! F,2 z |] %12
w: dy- ri aa da- ri, kom|pi- ri- um.|

